src/pos-icons/format-horizontal-align-left.svg

<svg height="24" viewBox="0 0 24 24" width="24" xmlns="http://www.w3.org/2000/svg"><path d="m11 16v-3h10v-2h-10v-3l-4 4zm-8 4h2v-16h-2z"/></svg>

<?xml version="1.0" encoding="UTF-8"?><!DOCTYPE svg PUBLIC "-//W3C//DTD SVG 1.1//EN" "http://www.w3.org/Graphics/SVG/1.1/DTD/svg11.dtd"><svg xmlns="http://www.w3.org/2000/svg" xmlns:xlink="http://www.w3.org/1999/xlink" version="1.1" id="mdi-format-horizontal-align-left" width="24" height="24" viewBox="0 0 24 24"><path d="M11,16V13H21V11H11V8L7,12L11,16M3,20H5V4H3V20Z" /></svg>
